X:1
T:Lord John Scott
T:Lord John Scott
T:William Marshall
C:William Marshall
%%score 1 2
L:1/8
M:4/4
K:A
V:1 treble 
V:2 bass 
V:1
 A2 (ce) dcBA | fgae (dc)(BA) | dfBd ceAc | dBcA (AG)(FE) | A2 (ce) (dc)(BA) | fgae (dc)(BA) | %6
 fdec dBcA | AGFE A2 A2!fine! || (!fermata!^de)(de) fgaf | gbag agfe | ^dBfB gBfB | %11
 bgaf (e^d)(cB) | (^de)(de) fgaf | gbag agfe | bgaf gef^d | [FB]e[A^d]f [Ge]2 e2!D.C.! |] %16
V:2
 [A,,A,]2 [A,,A,]2 [A,,A,]2 [A,,A,]2 | [A,,A,]2 [A,,A,]2 [A,,A,]2 [A,,A,]2 | %2
 [F,,F,]2 [G,,G,]2 [A,,A,]2 [A,,A,]2 | [G,,G,]2 [A,,A,]2 [E,,E,]2 [E,,E,]2 | %4
 [A,,A,]2 [A,,A,]2 [A,,A,]2 [A,,A,]2 | [A,,A,]2 [A,,A,]2 [A,,A,]2 [A,,A,]2 | %6
 [D,,D,]2 [C,,C,]2 [G,,G,]2 [A,,A,]2 | [E,,E,]2 [E,,E,]2 [A,,A,]2 [A,,A,]2 || %8
 [E,G,B,]2 [E,G,B,]2 [E,F,G,]2 [E,F,G,]2 | [E,G,B,]2 [E,G,B,]2 [E,G,B,]2 [E,G,B,]2 | %10
 [F,A,B,]2 [F,A,B,]2 [F,A,B,]2 [F,A,B,]2 | [E,G,B,]2 [A,B,]2 [B,,F,A,]2 [B,,F,A,]2 | %12
 [E,G,B,]2 [E,G,B,]2 [E,A,B,]2 [E,A,B,]2 | [E,G,B,]2 [E,G,B,]2 [E,G,B,]2 [E,G,B,]2 | %14
 [E,B,]2 [^D,B,]2 [E,B,]2 [F,A,B,]2 | B,2 B,,2 E,2 E,,2 |] %16

